assets/B button blood type/Flat/b_button_blood_type_flat.svg

<svg width="32" height="32" viewBox="0 0 32 32" fill="none" xmlns="http://www.w3.org/2000/svg">
<path d="M2 6C2 3.79086 3.79086 2 6 2H26C28.2091 2 30 3.79086 30 6V26C30 28.2091 28.2091 30 26 30H6C3.79086 30 2 28.2091 2 26V6Z" fill="#F92F60"/>
<path d="M11.755 8C10.79 8 10.0072 8.78108 10.005 9.74603L9.97657 22.268C9.97551 22.7328 10.1594 23.179 10.4877 23.508C10.816 23.8371 11.2617 24.022 11.7266 24.022H17.4564C17.4976 24.022 17.5385 24.0206 17.5791 24.0178C20.2431 23.9799 22.4375 21.8357 22.4375 19.1387C22.4375 17.6214 21.743 16.2791 20.6611 15.3883C20.5643 15.3086 20.5356 15.1715 20.5921 15.0595C20.9226 14.4056 21.1092 13.6661 21.1092 12.8796C21.1092 10.1583 18.8753 8 16.179 8H11.755ZM16.1521 17.759C16.1611 17.7592 16.17 17.7592 16.179 17.7592C16.1941 17.7592 16.2091 17.7592 16.2242 17.759H17.5073C18.3237 17.759 18.9375 18.403 18.9375 19.1387C18.9375 19.8743 18.3237 20.5183 17.5073 20.5183C17.4686 20.5183 17.4302 20.5195 17.3922 20.522H13.7311C13.5928 20.522 13.4808 20.4097 13.4811 20.2714L13.4862 18.0085C13.4866 17.8706 13.5984 17.759 13.7362 17.759H16.1521ZM16.204 14.259H13.7453C13.607 14.259 13.495 14.1468 13.4953 14.0085L13.5004 11.7494C13.5008 11.6116 13.6126 11.5 13.7504 11.5H16.179C16.9954 11.5 17.6092 12.144 17.6092 12.8796C17.6092 13.6077 17.0079 14.246 16.204 14.259Z" fill="white"/>
</svg>

<svg xmlns="http://www.w3.org/2000/svg" width="32" height="32" fill="none"><path fill="#F92F60" d="M2 6a4 4 0 0 1 4-4h20a4 4 0 0 1 4 4v20a4 4 0 0 1-4 4H6a4 4 0 0 1-4-4V6Z"/><path fill="#fff" d="M11.755 8a1.75 1.75 0 0 0-1.75 1.746l-.028 12.522a1.75 1.75 0 0 0 1.75 1.754h5.73c.04 0 .081-.001.122-.004 2.664-.038 4.858-2.182 4.858-4.88a4.84 4.84 0 0 0-1.776-3.75.27.27 0 0 1-.069-.329c.33-.653.517-1.393.517-2.18C21.11 10.16 18.875 8 16.18 8h-4.424Zm4.397 9.759h1.355c.817 0 1.43.644 1.43 1.38 0 .735-.613 1.38-1.43 1.38-.038 0-.077 0-.115.003h-3.66a.25.25 0 0 1-.25-.25l.004-2.263a.25.25 0 0 1 .25-.25h2.416Zm.052-3.5h-2.459a.25.25 0 0 1-.25-.25l.005-2.26a.25.25 0 0 1 .25-.249h2.429c.816 0 1.43.644 1.43 1.38 0 .728-.601 1.366-1.405 1.379Z"/></svg>
